X: 06017
T: DONNA HINDS
C: Bob McQuillen 10 Oct 81
B: Bob's Note Book 6 #17
%R: reel
Z: 2021 John Chambers <jc:trillian.mit.edu>
M: C
L: 1/8
K: D
A,B, \
| D2DE FAFD | EDEF A2df | afba f2df | edBF BAFE |\
| D2DE FAFD | EDEF ABdf | afba fdBd | AFDF ED :|
|: AB \
| d2df afdf | afbf afdc | B2Bd fdfa | bafd edBd |\
| A2Ad BABd | ABde fdfa | bafe fdBd | BAFD ED :|
%%begintext align
%% Nobody's
%% been nicer to us than you have, Donna -
%% New England Tradition loves you!
%%endtext

%%sep 1 1 500

%%sep 1 1 500

